X: 35
T: Piano Sonata no. 11 in B\b major, Allegro con brio
C: Ludwig van Beethoven
%%abc-version 2.0
%%abcx-abcm2ps-target-version 5.9.1 (29 Sep 2008)
%%abc-creator hum2abc beta
%%abcx-conversion-date 2021/01/11 11:42:12
%%abc-edited-by Craig Stuart Sapp
%%abcx-initial-encoding-date 2008/11/05/
%%gracespace 0 6 6
%%humdrum-veritas 197682149
%%humdrum-veritas-data 3262442918
%%linebreak <none>
%%barnumbers 0
L: 1/16
M: 4/4
Q: "Allegro con brio" 1/4=132
%%staves {1 2}
V: 1 clef=treble
V: 2 clef=bass
K: Bb
[V:1] .D4 & B,A,B,F, [I:setbarnb 1]| 
[V:2] z4 | 
[V:1] .F4.D4z4.D4 & D4.B,4z4B,A,B,F, | 
[V:2] .[B,,,4B,,4].[B,,,4B,,4]z8 | 
[V:1] .F4.D4z4D4 & D4.B,4z4B,A,B,F, | 
[V:2] .[B,,,4B,,4].[B,,,4B,,4]z8 | 
[V:1] .F4.B4.d4.f4 & D^CDB, F=EFD BABF d^cdB | 
[V:2] z16 | 
[V:1] b12abc'b | 
[V:2] B,,D,F,B, B,,D,F,B, B,,D,F,B, B,,D,F,B, | 
[V:1] a2g2f2e2 d2c2g2f2 | 
[V:2] B,,E,G,B, B,,E,G,B, B,,E,F,A, B,,E,F,A, | 
[V:1] e4d4z4=ABcB | 
[V:2] B,,D,F,B, B,,D,F,B, B,,D,F,_A, B,,D,F,A, | 
[V:1] _A2G2F2E2 D2C2E2=A,2 | 
[V:2] B,,E,G,E, B,,E,G,E, B,,C,E,F, B,,C,E,F, | 
[V:1] .B,2DC B,A,B,G, .F,2GF EDEC | 
[V:2] .B,,4B,,A,,B,,.G,,.F,,4E,D,E,C, | 
[V:1] .B,2dc BABG .F2gf edec | 
[V:2] .B,,4B,A,B,G,.F,4EDEC[K:clef=treble] | 
[V:1] B2cd efga babc' d'c'd'=e' | 
[V:2] B,2CD EFGA BABc dcd=e | 
[V:1] .f'4.F4z8 | 
[V:2] .f4[K:clef=bass].F,4z4B,,A,,B,,F,, | 
[V:1] z16 | 
[V:2] D,^C,D,B,, F,=E,F,D, B,A,B,F, D^CDB, | 
[V:1] z8!accent!f8- | 
[V:2] F4>>E4 D2>C2B,3_A, | 
[V:1] f8e4d4- & z4=B4c4=A4 | 
[V:2] G,8_A,4^F,4 | 
[V:1] d4c8=B4 & B4G4A4F4 | 
[V:2] G,4=E,4F,4D,4 | 
[V:1] c[=EG]c[EG] c[EG]d[EG] =e[GB]c[GB] d[GB]e[GB] | 
[V:2] [C,,2C,2]C2C2C2 C2C2C2C2 | 
[V:1] f[FA]f[FA] f[FA]=e[FA] d[F_A]c[FA] =B[FA]d[FA] | 
[V:2] C2C2C2C2 C2C2C2C2 | 
[V:1] c[=EG]=B[EG] c[EG]d[EG] =e[G_B]c[GB] d[GB]e[GB] | 
[V:2] [C,,2C,2]C2C2C2 C2C2C2C2 | 
[V:1] f[FA]f[FA] f[FA]=e[FA] d[F_A]c[FA] =B[FA]d[FA] | 
[V:2] C2C2C2C2 C2C2C2C2 | 
[V:1] c[=EG]c[EG] =B[F_A]d[FA] c[EG]c[EG] B[FA]d[FA] | 
[V:2] C,2C2C2C2 C,2C2C2C2 | 
[V:1] [=EGc] CDE FG=A=B cBcB cBcB | 
[V:2] C,4z4z8 | 
[V:1] [A8c8]A4f4 | 
[V:2] z F,G,A, B,CD=E FEFE FEFE | 
[V:1] [A4c4][f4a4][A4c4][a4c'4] | 
[V:2] F=EFE FEFE FEFE FEFE | 
[V:1] [A8c8]A4f4 | 
[V:2] FF,G,A, B,CD=E FEFE FEFE | 
[V:1] [A4c4][f4a4][A4c4][a4c'4] | 
[V:2] F=EFE FEFE FEFE F_EFE | 
[V:1] [d8f8]z8 & [A8c8]z8 | 
[V:2] ^CDCD =B,=CB,C ^G,A,G,A, ^E,^F,E,F, | 
[V:1] z4^f4a4c'4- | 
[V:2] ^C,D,C,D, =B,,=C,B,,C, ^G,,A,,G,,A,, ^E,,^F,,E,,F,, | 
[V:1] c'4b4-b4g4- & ^f8g4-_d4 | 
[V:2] ^C,,D,,C,,D,, C,,D,,C,,D,, D,,E,,D,,E,, ^D,,=E,,D,,E,, | 
[V:1] g4[f4a4][=d4g4][B4=e4] & c8B4G4 | 
[V:2] =E,,F,,E,,F,, E,,F,,E,,F,, A,,,B,,,A,,,B,,, =B,,,C,,B,,,C,, | 
[V:1] f4z4[F8A8] & [F4A4]z4z8 | 
[V:2] F,,,4z4[F,8A,8] | 
[V:1] [D4F4][B,4D4][G6B6][F2A2] | 
[V:2] [D,4F,4][B,,4D,4][G,6B,6][F,2A,2] | 
[V:1] [=E4G4][C4E4][A8c8] | 
[V:2] [=E,4G,4][C,4E,4][A,8C8] | 
[V:1] [F4A4][D4F4][B6d6][A2c2] | 
[V:2] [F,4A,4][D,4F,4][B,6D6][A,2C2] | 
[V:1] [G4B4][=E4G4][B6g6][A2f2] | 
[V:2] [G,4B,4][=E,4G,4][B,6G6][A,2F2] | 
[V:1] [G4=e4]>[F4d4][=E4c4][B,4B4] | 
[V:2] [G,4=E4]>[F,4D4][=E,4C4][D,4F,4] | 
[V:1] [A,4A4][^C4G4][D4F4][F,4G,4D4] | 
[V:2] [^C,4=E,4][A,,4E,4][B,,4D,4]=B,,4 | 
[V:1] z16 | 
[V:2] z4[F,4A,4C4]z4[C,4=E,4G,4C4] & C,8C,,8 | 
[V:1] z8z2[F4A4][F2A2] | 
[V:2] [F,6A,6]z8[F,2A,2] & F,,,8z4[C,4F,4A,4] | 
[V:1] z2 [D2F2] z2 [B,2D2] z2[G4B4][F2A2] | 
[V:2] [D,2F,2] z2 [B,,2D,2] z4<[G,4B,4][F,2A,2] | 
[V:1] z2 [=E2G2] z2 [C2E2] z2[A4c4][A2c2] | 
[V:2] [=E,2G,2] z2 [C,2E,2] z4<[A,4C4][A,2C2] | 
[V:1] z2 [F2A2] z2 [D2F2] z2[B4d4][A2c2] | 
[V:2] [F,2A,2] z2 [D,2F,2] z4<[B,4D4][A,2C2] | 
[V:1] z2 [G2B2] z2 [=E2G2] z2[B4g4][A2f2] | 
[V:2] [G,2B,2] z2 [=E,2G,2] z4<[B,4G4][A,2F2] | 
[V:1] z2[G4=e4][F2d2] z2 [=E2c2] z2 [B,2B2] | 
[V:2] [G,4=E4]>[F,4D4] [=E,2C2] z2 [D,2F,2] z2 | 
[V:1] AA,^C=E A^c=e^g agag aecA | 
[V:2] [^C,16=E,16G,16] | 
[V:1] z A,DF Adf^g agag afdA | 
[V:2] [D,16F,16] | 
[V:1] z _A,=B,D F_A=Bd fd_af dBAF | 
[V:2] [=B,,16D,16F,16] | 
[V:1] z =EGB _d=egb _d'=e'=ee' ee'ee' | 
[V:2] [B,,8_D,8=E,8G,8]-[B,,2D,2E,2G,2].[B,,2C,2G,2].[B,,2C,2G,2].[B,,2C,2G,2] | 
[V:1] ff'=e=e' ff'Bb Aaee' ff'Bb | 
[V:2] [A,,4C,4F,4]z2 .[=E,,2C,2] .[F,,2C,2].[B,,2C,2].[A,,2C,2].[E,,2C,2] | 
[V:1] Aa=e=e' ff'Bb Aaee' ff'Bb | 
[V:2] .[F,,2C,2].[B,,2C,2].[A,,2C,2].[=E,,2C,2] .[F,,2C,2].[B,,2C,2].[A,,2C,2].[E,,2C,2] | 
[V:1] AaGg Ff=E=e DdCc B,BA,A | 
[V:2] F,,8D,,8 | 
[V:1] G,GF,F =E,=ED,Dz8 | 
[V:2] z8C,CB,,B, A,,A,G,,G, & B,,,8C,,8 | 
[V:1] z16 | 
[V:2] F,2=E,C F,CB,C A,CE,C F,CB,C & [F,,,2F,,2] B,,2A,,2=E,,2 F,,2B,,2A,,2E,,2 | 
[V:1] z16 | 
[V:2] A,C=E,C F,CB,C A,C^C,^C D,DE,=E & F,,2B,,2A,,2=E,,2 E,,2G,,2F,,2E,,2 | 
[V:1] E,F^E,^F G,GA,A B,BCc DdCc | 
[V:2] D,,2=C,,2B,,,2A,,,2G,,,8- | 
[V:1] B,BA,A G,GF,F =E,=ED,D C,CE,E | 
[V:2] G,,,8C,,8 | 
[V:1] z8[K:clef=bass][A,8C8] & [F,4F4]z4A,6F,2 | 
[V:2] F,,,F,,F,,,F,, F,,,F,,F,,,F,, F,,,F,,F,,,F,, F,,,F,,F,,,F,, | 
[V:1] [B,8_D8][B,4C4][B,4C4] & B,4>_A,4 G,2F,2G,2=E,2 | 
[V:2] F,,,F,,F,,,F,, F,,,F,,F,,,F,, F,,,F,,F,,,F,, F,,,F,,F,,,F,, | 
[V:1] C4>z4[K:clef=treble]A6F2 & [F,4=A,4]>z4[A,8C8] | 
[V:2] E,,,F,,E,,,F,, F,,,F,,F,,,F,, F,,,F,,F,,,F,, F,,,F,,F,,,F,, | 
[V:1] B4>_A4 _G2F2G2=E2 & [B,8_D8][B,4D4][B,4D4] | 
[V:2] F,,,F,,F,,,F,, F,,,F,,F,,,F,, F,,,F,,F,,,F,, F,,,F,,F,,,F,, | 
[V:1] F4>z4 =G2F2G2=E2 & [A,4C4]>z4[B,4_D4][B,4D4] | 
[V:2] F,,,F,,F,,,F,, F,,,F,,F,,,F,, F,,,F,,F,,,F,, F,,,F,,F,,,F,, | 
[V:1] F4>z4 _G2F2G2=E2 & [A,4C4]>z4[B,4_D4][B,4D4] | 
[V:2] F,,,F,,F,,,F,, F,,,F,,F,,,F,, F,,,F,,F,,,F,, F,,,F,,F,,,F,, | 
[V:1] [F,4F4]>.[=G,4=G4].[A,6A6].[B,2B2] | 
[V:2] [F,,,4F,,4]>.[G,,,4G,,4].[A,,,6A,,6].[B,,,2B,,2] | 
[V:1] [C4c4]>.[D4d4] .[=E2=e2].[F2f2].[G2g2].[A2a2] | 
[V:2] [C,,4C,4]>.[D,,4D,4] .[=E,,2=E,2].[F,,2F,2].[G,,2G,2].[A,,2A,2] | 
[V:1] [B4b4]>.[A4a4][G6g6].[F2f2] | 
[V:2] [B,,4B,4]>.[A,,4A,4][G,,6G,6].[F,,2F,2] | 
[V:1] [=E4=e4]>.[D4d4] .[C2c2].[B,2B2].[A,2A2].[G,2G2] | 
[V:2] [=E,,4=E,4]>.[D,,4D,4] .[C,,2C,2].[B,,,2B,,2].[A,,,2A,,2].[G,,,2G,,2] | 
[V:1] .[F,4F4]=E^DEC.F4=e^dec | 
[V:2] .[F,,,4F,,4].[C,4G,4B,4].[F,4A,4][K:clef=treble].[C4G4B4] | 
[V:1] .f4z4.[=e4g4b4c'4=e'4]z4 | 
[V:2] .[F4A4]z4[K:clef=bass].[C,4C4]z4 | 
[V:1] .[f4a4c'4f'4]z4z4 :|]  
[V:2] .[F,,4F,4]z4z4 :|]  
[V:1] C=B,CA, [I:setbarnb 69]| 
[V:2] z4 | 
[V:1] .F4z4z4C=B,CA, | 
[V:2] z4C,=B,,C,A,,.F,4z4 | 
[V:1] .F4z4z4C=B,CA, | 
[V:2] z4C,=B,,C,A,,.F,4C,B,,C,A,, | 
[V:1] F4>.G4A6.B2 | 
[V:2] [F,,4F,4]>.[G,,4G,4][A,,6A,6].[B,,2B,2] | 
[V:1] c4>.d4 .e2.d2.c2.d2 | 
[V:2] [C,4C4]>.[D,4D4] .[E,2E2].[D,2D2].[C,2C2].[D,2D2] | 
[V:1] e4>.d4 .c2.B2.A2.B2 | 
[V:2] [E,4E4]>.[D,4D4] .[C,2C2].[B,,2B,2].[A,,2A,2].[B,,2B,2] | 
[V:1] c4>.B4 .A2.G2.^F2.=E2 | 
[V:2] [C,4C4]>.[B,,4B,4] .[A,,2A,2].[G,,2G,2].[^F,,2^F,2].[=E,,2=E,2] | 
[V:1] D8^F6D2 & z8[A,8C8] | 
[V:2] D,,D,D,,D, D,,D,D,,D, D,,D,D,,D, D,,D,D,,D, | 
[V:1] G4>=F4 E2D2E2^C2 & B,8[G,4B,4][G,4B,4] | 
[V:2] D,,D,D,,D, D,,D,D,,D, D,,D,D,,D, D,,D,D,,D, | 
[V:1] z8^f6d2 & [^F,4A,4D4]>z4[A8c8] | 
[V:2] D,,D,D,,D, D,,D,D,,D, D,,D,D,,D, D,,D,D,,D, | 
[V:1] g4>=f4 e2d2e2^c2 & [G8B8][G4B4][G4B4] | 
[V:2] D,,D,D,,D, D,,D,D,,D, D,,D,D,,D, D,,D,D,,D, | 
[V:1] [^F4A4d4]>z4 =e2d2e2^c2 & z8[G4B4][G4B4] | 
[V:2] D,,D,D,,D, D,,D,D,,D, D,,D,D,,D, D,,D,D,,D, | 
[V:1] d4>z4 e2d2e2^c2 & [^F4A4]>z4[G4B4][G4B4] | 
[V:2] D,,D,D,,D, D,,D,D,,D, D,,D,D,,D, D,,D,D,,D, | 
[V:1] [^F4A4d4]z4z8 | 
[V:2] D,,4>.=E,,4[^F,,6D,6].[G,,2=E,2] | 
[V:1] z4e2.d2 .c2.B2.A2.G2 | 
[V:2] [A,,4C,4^F,4]>.[B,,4D,4G,4] .[F,2A,2].[G,2B,2].[A,2C2].[B,2D2] | 
[V:1] .^F4a^ga^f c'=bc'a e'd'c'_b | 
[V:2] .[C4E4]z4z8 | 
[V:1] abc'b ag^fg agfe dc=Bc | 
[V:2] z16 | 
[V:1] =B4z4z8 | 
[V:2] G,,4>.A,,4[=B,,6G,6].[C,2A,2] | 
[V:1] z4._a2.g2 .=f2.e2.d2.c2 | 
[V:2] [D,4F,4=B,4]>.[E,4G,4C4][K:clef=treble] .[=B,2D2].[C2E2].[D2F2].[E2G2] | 
[V:1] .=B4d^cdB f=efd _agf_e | 
[V:2] .[F4_A4]z4z8 | 
[V:1] defe dc=Bc dcB_A GF=EF | 
[V:2] z16[K:clef=bass] | 
[V:1] =E4z4z8 | 
[V:2] C,,4>.D,,4[E,,6C,6].[F,,2D,2] | 
[V:1] z4._d2.c2 .B2._A2.G2.F2 | 
[V:2] [G,,4B,,4=E,4]>.[_A,,4C,4F,4] .[=E,2G,2].[F,2_A,2].[G,2B,2].[A,2C2] | 
[V:1] .=E4g^fg=e babg _d'c'd'c' | 
[V:2] .[B,4_D4]z4z8 | 
[V:1] _d'bg=e bge_d gedB edBG | 
[V:2] z4_D,4-[D,4=E,4]-[D,4E,4G,4] & B,,16 | 
[V:1] z4f=efc _agaf c'=bc'a | 
[V:2] z4C,4-[C,4F,4]-[C,4F,4_A,4] & _A,,16 | 
[V:1] f'c'_af c'afc afc_A fcAF | 
[V:2] z4C,4-[C,4F,4]-[C,4F,4_A,4] & _A,,16 | 
[V:1] z4f=efd =b^abf d'^c'd'=b | 
[V:2] z4D,4-[D,4F,4]-[D,4F,4G,4] & G,,16 | 
[V:1] f'd'=bf d'bfd bfd=B fdBF | 
[V:2] z4=B,,4-[B,,4D,4]-[B,,4D,4G,4] & G,,16 | 
[V:1] z4edec g^fge c'=bc'g | 
[V:2] z4C,4-[C,4E,4]-[C,4E,4G,4] & G,,16 | 
[V:1] e'c'=ae c'aec aecA ecAE | 
[V:2] z4C,4-[C,4E,4]-[C,4E,4_G,4] & _G,,16 | 
[V:1] z4edec a^gae c'=bc'a | 
[V:2] z4C,4-[C,4E,4]-[C,4E,4F,4] & F,,16 | 
[V:1] e'c'ae c'aec aecA ecAE | 
[V:2] z4A,,4-[A,,4C,4]-[A,,4C,4F,4] & F,,16 | 
[V:1] z4_dcdB f=efd babf | 
[V:2] z4B,,4-[B,,4_D,4]-[B,,4D,4F,4] & F,,16 | 
[V:1] _d'bg_d bgdB gdBG dBG_D | 
[V:2] z4B,,4-[B,,4_D,4]-[B,,4D,4_F,4] & _F,,16 | 
[V:1] z4_dcdB g^fgd babg | 
[V:2] z4B,,4-[B,,4_D,4]-[B,,4D,4E,4] & E,,16 | 
[V:1] _d'bg_d bgdB gdBG dBG_D | 
[V:2] z4B,,4-[B,,4_D,4]-[B,,4D,4E,4] & E,,16 | 
[V:1] BG_DB, GDB,G, EDB,G, EDB,G, | 
[V:2] E,,4>F,,4G,,6_A,,2 | 
[V:1] E_DB,G, EDB,G, EDB,G, EDB,G, | 
[V:2] B,,4>C,4 _D,2C,2B,,2_A,,2 | 
[V:1] E_DB,G, EDB,G, EDB,G, EDB,G, | 
[V:2] G,,4>_A,,4 B,,2A,,2G,,2F,,2 | 
[V:1] E_DB,G, EDB,G, EDB,G, EDB,G, | 
[V:2] E,,4z4z8 | 
[V:1] =E_DB,G, EDB,G, EDB,G, EDB,G, | 
[V:2] C,,4>=D,,4=E,,6F,,2 | 
[V:1] =E_DB,G, EDB,G, EDB,G, EDB,G, | 
[V:2] G,,4>_A,,4 B,,2A,,2G,,2F,,2 | 
[V:1] =E_DB,G, EDB,G, EDB,G, EDB,G, | 
[V:2] =E,,4>F,,4 G,,2F,,2E,,2=D,,2 | 
[V:1] =E_DB,G, EDB,G, ECB,G, ECB,G, | 
[V:2] C,,4z4z8 | 
[V:1] EC=A,_G, ECA,G, ECA,G, ECA,G, | 
[V:2] F,,,4>G,,,4=A,,,6B,,,2 | 
[V:1] ECA,_G, ECA,G, ECA,G, ECA,G, | 
[V:2] C,,4>_D,,4 E,,2D,,2C,,2B,,,2 | 
[V:1] ECA,_G, ECA,G, ECA,G, ECA,G, | 
[V:2] A,,,4>B,,,4 C,,2B,,,2A,,,2G,,,2 | 
[V:1] ECA,_G, ECA,G, ECA,F, ECA,F, | 
[V:2] F,,,16- | 
[V:1] ECA,F, ECA,F, ECA,F, ECA,F, | 
[V:2] F,,,8C,,2B,,,2A,,,2G,,,2 | 
[V:1] ECA,F, ECA,F, ECA,F, ECA,F, | 
[V:2] F,,,16- | 
[V:1] ECA,F, ECA,F, ECA,F, ECA,F, | 
[V:2] F,,,8C,,2B,,,2A,,,2G,,,2 | 
[V:1] ECA,F, ECA,F, ECA,F, ECA,F, | 
[V:2] F,,,8C,,2B,,,2A,,,2G,,,2 | 
[V:1] ECA,F, ECA,F, ECA,F, ECA,F, | 
[V:2] F,,,8C,,2B,,,2A,,,2G,,,2 | 
[V:1] ECA,F, ECA,F, ECA,F, ECA,F, | 
[V:2] F,,,4>G,,,4 A,,,2B,,,2C,,2D,,2 | 
[V:1] ECA,F, ECA,F, ECA,F, ECA,F, | 
[V:2] E,,2=E,,2F,,2G,,2 A,,2B,,2C,2D,2 | 
[V:1] z16 | 
[V:2] z2 =E,2F,2G,2 A,2B,2C2D2 & [F,,16E,16] | 
[V:1] E2=E2F2G2 A2B2c2d2 | 
[V:2] [F,,8C,8][F,,8B,,8] | 
[V:1] [E16c16e16]- | 
[V:2] [F,,16A,,16F,16]- | 
[V:1] z12D4 & !fermata![E12c12e12]B,A,B,F, | 
[V:2] !fermata![F,,12A,,12F,12]z4 | 
[V:1] .F4.D4z4D4 & D4B,4z4B,A,B,F, | 
[V:2] .[B,,,4B,,4].[B,,,4B,,4]z8 | 
[V:1] .F4.D4z4.D4 & D4B,4z4B,A,B,F, | 
[V:2] .[B,,,4B,,4].[B,,,4B,,4]z8 | 
[V:1] .F4.B4.d4.f4 & D^CDB, F=EFD BABF d^cdB | 
[V:2] z16 | 
[V:1] b12abc'b | 
[V:2] B,,D,F,B, B,,D,F,B, B,,D,F,B, B,,D,F,B, | 
[V:1] a2g2f2e2 d2c2g2f2 | 
[V:2] B,,E,G,B, B,,E,G,B, B,,E,F,A, B,,E,F,A, | 
[V:1] e4d4z4=ABcB | 
[V:2] B,,D,F,B, B,,D,F,B, B,,D,F,_A, B,,D,F,A, | 
[V:1] _A2G2F2E2 D2C2E2=A,2 | 
[V:2] B,,E,G,E, B,,E,G,E, B,,C,E,F, B,,C,E,F, | 
[V:1] B,2DC B,A,B,G, .F,2GF EDEC | 
[V:2] .B,,4B,,A,,B,,G,,.F,,4E,D,E,C, | 
[V:1] .B,2dc BABG .F2gf edec | 
[V:2] .B,,4B,A,B,G,.F,4[K:clef=treble]EDEC | 
[V:1] B2cd efga babc' d'c'd'=e' | 
[V:2] B,2CD EFGA BABc dcd=e | 
[V:1] .f'4.F4z8 | 
[V:2] z12[K:clef=bass]D,4 & .f4.F,4z4B,,A,,B,,F,, | 
[V:1] z4F4.d4.B4 & z4D^CDB,F4D4 | 
[V:2] F,4D,4z4D,4 & .D,4.B,,4z4B,,A,,B,,F,, | 
[V:1] z4F4.d4.B4 & z4D^CDB,F4D4 | 
[V:2] F,4D,4z4D,^C,D,B,, & .D,4.B,,4z8 | 
[V:1] z16 | 
[V:2] F,=E,F,D, B,A,B,F,[K:clef=treble] D^CDB, F=EFD | 
[V:1] z8_a8- | 
[V:2] _A4>>G4 F2>E2D3C[K:clef=bass] | 
[V:1] a4g4-g4f4- & d8e4c4 | 
[V:2] =B,8C4=A,4 | 
[V:1] f4e4-e4d4- & d4=B4c4=A4 | 
[V:2] B,4G,4_A,4^F,4 | 
[V:1] d4c4-c4B4- & B4G4_A4F4 | 
[V:2] G,4=E,4=F,4D,4 | 
[V:1] B4=A4B4D4 & G4E4D4B,4 | 
[V:2] E,4C,4D,4=E,4 | 
[V:1] [A,2C2]F[A,C] F[A,C]G[A,C] A[CE]F[CE] G[CE]A[CE] | 
[V:2] F,,2F,2F,2F,2 F,2F,2F,2F,2 | 
[V:1] B[B,_D]B[B,D] B[B,D]_A[B,D] G[B,D]F[B,D] =E[B,D]G[B,D] | 
[V:2] F,2F,2F,2F,2 F,2F,2F,2F,2 | 
[V:1] [A,2C2F2] f[Ac] f[Ac]g[Ac] a[ce]f[ce] g[ce]a[ce] | 
[V:2] [F,,2F,2] F2F2F2 F2F2F2F2 | 
[V:1] b[B_d]b[Bd] b[Bd]_a[Bd] g[Bd]f[Bd] =e[Bd]g[Bd] | 
[V:2] F2F2F2F2 F2F2F2F2 | 
[V:1] f[Ac]f[Ac] =e[B_d]g[Bd] f[Ac]f[Ac] e[Bd]g[Bd] | 
[V:2] F,2F2F2F2 F,2F2F2F2 | 
[V:1] [Acf] FGA Bc=d=e fefe fefe | 
[V:2] F,4z4z8[K:clef=treble] | 
[V:1] [d8f8]d4b4 | 
[V:2] z B,CD EFGA BABA BABA | 
[V:1] [d4f4][b4d'4][d4f4][d'4f'4] | 
[V:2] BABA BABA BABA BABA | 
[V:1] [d8f8]d4b4 | 
[V:2] BB,CD EFGA BABA BABA | 
[V:1] [d4f4][b4d'4][d4f4][d'4f'4] | 
[V:2] BABA BABA BABA B_ABA | 
[V:1] [g8=b8]z8 & [d8f8]z8 | 
[V:2] ^FGFG =E=FEF[K:clef=bass] ^CDCD ^A,=B,A,B, | 
[V:1] z4=b4d'4f'4- | 
[V:2] ^F,G,F,G, =E,=F,E,F, ^C,D,C,D, ^A,,=B,,A,,B,, | 
[V:1] f'4e'4-[c'8e'8]- & =b8c'4_g4 | 
[V:2] ^F,,G,,F,,G,, F,,G,,F,,G,, G,,_A,,G,,A,, ^G,,=A,,G,,A,, | 
[V:1] [c'4e'4][b4d'4][=g4c'4]a4 & f8e4[c4e4] | 
[V:2] A,,B,,A,,B,, A,,B,,A,,B,, D,,E,,D,,E,, =E,,F,,E,,F,, | 
[V:1] b4z4d8 & [B4d4]z4B8 | 
[V:2] B,,,4z4[B,8D8] | 
[V:1] B4G4e6d2 & G4E4c6B2 | 
[V:2] [G,4B,4][E,4G,4][C6E6][B,2D2] | 
[V:1] c4A4f8 & A4F4d8 | 
[V:2] [A,4C4][F,4A,4][D8F8] | 
[V:1] d4B4z8 & B4G4[e6g6][d2f2] | 
[V:2] [B,4D4][G,4B,4][K:clef=treble][E6G6][D2F2] | 
[V:1] [c4e4][A4c4][e6c'6][d2b2] | 
[V:2] [C4E4][A,4C4][E6c6][D2B2] | 
[V:1] [c4a4]>[B4g4][A4f4][E4e4] | 
[V:2] [C4A4]>[B,4G4][A,4F4][K:clef=bass][G,4B,4] | 
[V:1] [D4d4][^F4c4][G4B4][C4G4] | 
[V:2] [^F,4A,4][D,4A,4][E,4G,4][=E,4B,4] | 
[V:1] z4[B,4D4F4]z4[A,4C4F4] | 
[V:2] F,8F,,8 | 
[V:1] z4[F,4B,4D4]z2[B4d4][B2d2] | 
[V:2] B,,,8[B,6D6][B,2D2] | 
[V:1] z2 [G2B2] z2 [E2G2] z2[c4e4][B2d2] | 
[V:2] [G,2B,2] z2 [E,2G,2] z4<[C4E4][B,2D2] | 
[V:1] z2 [A2c2] z2 [F2A2] z2[d4f4][d2f2] | 
[V:2] [A,2C2] z2 [F,2A,2] z4<[D4F4][D2F2] | 
[V:1] z2 [B2d2] z2 [G2B2] z2[e4g4][d2f2] | 
[V:2] [B,2D2] z2 [G,2B,2] z4<[K:clef=treble][E4G4][D2F2] | 
[V:1] z2 [c2e2] z2 [A2c2] z2[e4c'4][d2b2] | 
[V:2] [C2E2] z2 [A,2C2] z4<[E4c4][D2B2] | 
[V:1] z2[c4a4][B2g2] z2 [A2f2] z2 [E2e2] | 
[V:2] [C4A4]>[B,4G4][K:clef=bass] [A,2F2] z2 [G,2B,2] z2 | 
[V:1] dD^FA d^fa^c' d'c'd'c' d'afd | 
[V:2] [^F,16A,16C16] | 
[V:1] z DGB dgb^c' d'c'd'c' d'bgd | 
[V:2] [G,16B,16] | 
[V:1] z _D=EG B_d=eg bg_d'b gedB | 
[V:2] [=E,16G,16] | 
[V:1] z A,CE _GAce _gaAa AaAa | 
[V:2] [E,8_G,8]-[E,2G,2].[E,2F,2C2].[E,2F,2C2].[E,2F,2C2] | 
[V:1] BbAa BbEe DdAa BbEe | 
[V:2] [D,4F,4B,4]z2 .A,,2 .B,,2.E,2.D,2.A,,2 & z4>F,4 F,2F,2F,2F,2 | 
[V:1] DdAa BbEe DdAa BbEe | 
[V:2] F,2F,2F,2F,2 F,2F,2F,2F,2 & .B,,2.E,2.D,2.A,,2 .B,,2.E,2.D,2.A,,2 | 
[V:1] DdAa BbAa GgFf EeDd | 
[V:2] B,,8G,,8 | 
[V:1] CcB,B A,AG,G[K:clef=bass] F,FE,E D,DC,C | 
[V:2] E,,8F,,8 | 
[V:1] .[B,,2B,2]A,F, B,F,EF, DF,A,F, B,F,EF, | 
[V:2] .B,,,2E,2D,2A,,2 B,,2E,2D,2A,,2 | 
[V:1] DF,A,F, B,F,EF, D2^F,^F[K:clef=treble] G,GA,A | 
[V:2] B,,2E,2D,2A,,2 B,,2C,2B,,2A,,2 | 
[V:1] B,B=B,=B CcDd EeFf GgFf | 
[V:2] G,,2=F,,2E,,2D,,2C,,8- | 
[V:1] EeDd CcB,B A,AG,G F,FA,A | 
[V:2] C,,8[F,,,8F,,8] | 
[V:1] [B,4B4]z4[D8F8] & z8D6B,2 | 
[V:2] B,,,B,,B,,,B,, B,,,B,,B,,,B,, B,,,B,,B,,,A,, B,,,B,,B,,,B,, | 
[V:1] [E8_G8][E4G4][E4G4] & E4>_D4 _C2B,2C2=A,2 | 
[V:2] B,,,B,,B,,,B,, B,,,B,,B,,,A,, B,,,B,,B,,,B,, B,,,B,,B,,,B,, | 
[V:1] [B,4D4F4]>z4d6B2 & z8[D8F8] | 
[V:2] B,,,B,,B,,,B,, B,,,B,,B,,,B,, B,,,B,,B,,,B,, B,,,B,,B,,,B,, | 
[V:1] e4>_d4 _c2B2c2A2 & [E8_G8][E4G4][E4G4] | 
[V:2] B,,,B,,B,,,B,, B,,,B,,B,,,B,, B,,,B,,B,,,B,, B,,,B,,B,,,B,, | 
[V:1] B4>z4 =c2B2c2A2 & [D4F4]>z4[E4_G4][E4G4] | 
[V:2] B,,,B,,B,,,B,, B,,,B,,B,,,B,, B,,,B,,B,,,B,, B,,,B,,B,,,B,, | 
[V:1] B4>z4 _c2B2c2A2 & [D4F4]>z4[E4G4][E4G4] | 
[V:2] B,,,B,,B,,,B,, B,,,A,,B,,,B,, B,,,B,,B,,,B,, B,,,B,,B,,,B,, | 
[V:1] [B,4B4]>.[=C4=c4][D6d6].[E2e2] | 
[V:2] [B,,,4B,,4]>.[C,,4C,4][D,,6D,6].[E,,2E,2] | 
[V:1] [F4f4]>.[G4g4] .[A2a2].[B2b2].[c2c'2].[d2d'2] | 
[V:2] [F,,4F,4]>.[G,,4G,4] .[A,,2A,2].[B,,2B,2].[C,2C2].[D,2D2] | 
[V:1] [e4e'4]>.[d4d'4][c6c'6].[B2b2] | 
[V:2] [E,4E4]>.[D,4D4][C,6C6].[B,,2B,2] | 
[V:1] [A4a4]>.[G4g4] .[F2f2].[E2e2].[D2d2].[C2c2] | 
[V:2] [A,,4A,4]>.[G,,4G,4] .[F,,2F,2].[E,,2E,2].[D,,2D,2].[C,,2C,2] | 
[V:1] .[B,4B4]A^GAF.B4a^gaf | 
[V:2] .[B,,,4B,,4].[F,4C4E4].[B,4D4][K:clef=treble].[F4c4e4] | 
[V:1] .b4z4.[A4c4e4f4a4]z4 | 
[V:2] .[B4d4]z4[K:clef=bass].[F,,4F,4]z4 | 
[V:1] .[B4d4f4b4]z4z4 |]  
[V:2] .[B,,,4B,,4]z4z4 |]  


